X: 1530
T: Harry Schultz's Waltz
B: australian traditional tunes wiki
M:3/4
L:1/8
R: Waltz
Q: 1/4=100
K:G
V:1 
Bc|"G"dBd2g2|"D7"f4 (3efe|"G"d6|B4 (3dBd|"D7"c2A2B2|c4e2|"G"d2B2c2|"D7"d4B2|
"G"dBd2g2|"D7"f4 (3efe|"G"d6|B4d2|"Em"g2f2g2|"C"e2a2g2|"D7"f2e2 (3fef|"G"g4 (3ded|
"Em"g2f2e2|"C"e4f2|"G"e2d2B2|d4 (3BdB|"D7"d2c2c2|c4e2|"G"c2B2B2|B4d2|
"Em"g2f2e2|"C"e4f2|"G"e2d2B2|d4 (3BdB|"D7"d2c2B2|d2c2A2|"G"A2G2G2|G4||
% abcbook-tune_id 6342d53aa3eb13deb99ab910


% abcbook-boost 0
% abcbook-tablature 
% abcbook-transpose 
% abcbook-lastupdated 1665324369566
% abcbook-soundfonts 
% abcbook-repeats 1
% NFF Book 2015

